X:1
T:Pullet, The
R:reel
M:4/4
L:1/8
K:D
c|d2ce dBAF|D2FD ADFA|dece dBAF|DEFA BEEc|
d2ce dBAF|D2FD ADFA|fedf edcB|1ABFA BEE:|2ABFA BE|]
(3DEF|~G3F GedB|A2FA DAFA|G3F GBdB|ABFA BEEF|
~G3F GedB|A2FA DAFA|fedf edcB|1ABFA BE:|2 ABFA BEE|]
</abc>
